**kern	**kern
*part1	*part1
*staff2	*staff1
*I"Piano	*
*clefF4	*clefG2
*k[b-e-a-d-]	*k[b-e-a-d-]
=1	=1
4F 4c	4f 4a-
(8FL	4r
8E-	.
8D-	4r
8CJ)	.
=	=
*^	*^
*	*	*	*^
(4F	2.BBn	(4a-	2.ddn	(4aa-/
4G	.	4g	.	4gg/
4A-)	.	4f)	.	4ff/)
*v	*v	*	*	*
*	*v	*v	*v
=	=
!	!LO:TX:b:i:t=marcato.
4C 4G	8e- 8cc 8ee-
.	(8e-L
4r	8g
.	8cc
4r	8ee-
.	8ee-J)
=	=
2.C 2.A-	2e-^ 2g-X 2ee-
.	4e- 4g-
=	=
*	*^
4D- 4A-	(8b-^L	4d- 4f
.	8a-	.
4r	8gn	2ryy
.	8a-	.
4r	8f	.
.	8d-J)	.
*	*v	*v
=	=
2.BB- 2.D- 2.G-X 2.B-	8r
.	(8ddd-L
.	8bb-
.	8gg-X
.	8dd-
.	8b-J
=	=
2.C 2.F 2.A- 2.c	8a-)
.	(8cccL
.	8aa-
.	8ff
.	8dd-
.	8bnJ)
=	=
*-	*-
!!!system-decoration: {(s1,s2)}
